src/Pure/16/symbolic/actions/help-info-symbolic.svg

<svg width="16" height="16" version="1.1" xmlns="http://www.w3.org/2000/svg">
 <g transform="translate(-393 -137)">
  <path d="m401 137c4.4183 0 8 3.5817 8 8s-3.5817 8-8 8-8-3.5817-8-8 3.5817-8 8-8zm0 1c-3.866 0-7 3.134-7 7s3.134 7 7 7 7-3.134 7-7-3.134-7-7-7z" fill="#363636"/>
 </g>
 <path d="m8 4a1 1 0 0 0-1 1 1 1 0 0 0 1 1 1 1 0 0 0 1-1 1 1 0 0 0-1-1zm0 3c-0.554 0-1 0.446-1 1v4c0 0.554 0.446 1 1 1s1-0.446 1-1v-4c0-0.554-0.446-1-1-1z" fill="#363636"/>
</svg>

<?xml version="1.0" encoding="UTF-8" standalone="no"?>
<svg
   width="16"
   height="16"
   version="1.1"
   id="svg2"
   sodipodi:docname="help-info-symbolic.svg"
   inkscape:version="1.4.2 (ebf0e940d0, 2025-05-08)"
   xmlns:inkscape="http://www.inkscape.org/namespaces/inkscape"
   xmlns:sodipodi="http://sodipodi.sourceforge.net/DTD/sodipodi-0.dtd"
   xmlns="http://www.w3.org/2000/svg"
   xmlns:svg="http://www.w3.org/2000/svg">
  <defs
     id="defs2">
     <style
        id="current-color-scheme"
        type="text/css">
        .ColorScheme-Text { color:#363636; }
     </style>
  </defs>
  <sodipodi:namedview
     id="namedview2"
     pagecolor="#ffffff"
     bordercolor="#000000"
     borderopacity="0.25"
     inkscape:showpageshadow="2"
     inkscape:pageopacity="0.0"
     inkscape:pagecheckerboard="0"
     inkscape:deskcolor="#d1d1d1"
     inkscape:zoom="49.6875"
     inkscape:cx="8"
     inkscape:cy="8"
     inkscape:window-width="1920"
     inkscape:window-height="1010"
     inkscape:window-x="0"
     inkscape:window-y="0"
     inkscape:window-maximized="1"
     inkscape:current-layer="svg2" />
  <path
     id="path1"
     style="fill:currentColor"
     class="ColorScheme-Text"
     d="M 8 0 C 3.5817 0 0 3.5817 0 8 C 0 12.4183 3.5817 16 8 16 C 12.4183 16 16 12.4183 16 8 C 16 3.5817 12.4183 0 8 0 z M 8 1 C 11.866 1 15 4.134 15 8 C 15 11.866 11.866 15 8 15 C 4.134 15 1 11.866 1 8 C 1 4.134 4.134 1 8 1 z M 8 4 A 1 1 0 0 0 7 5 A 1 1 0 0 0 8 6 A 1 1 0 0 0 9 5 A 1 1 0 0 0 8 4 z M 8 7 C 7.446 7 7 7.446 7 8 L 7 12 C 7 12.554 7.446 13 8 13 C 8.554 13 9 12.554 9 12 L 9 8 C 9 7.446 8.554 7 8 7 z " />
</svg>
